docs/public/static/images/examples/reactadmin.svg

<svg enable-background="new 0 0 131 131" viewBox="0 0 131 131" xmlns="http://www.w3.org/2000/svg"><path d="m19.1 19h92.9v92.9h-92.9z" fill="#222458" transform="matrix(.5 -.866 .866 .5 -23.9226 89.546)"/><path d="m83 130.3-82.2-47.4 47.4-82.2 82.2 47.5zm-79.5-48.2 78.7 45.5 45.5-78.7-78.7-45.5z" fill="#51537d"/><path d="m19 19.1h92.9v92.9h-92.9z" fill="#222458" transform="matrix(.866 -.5 .5 .866 -23.9777 41.527)"/><path d="m47.9 131-47.9-83 83.1-48 48 83.1zm-43.8-81.9 45 77.9 77.9-45-45-77.9z" fill="#a3a4b9"/><path d="m19.1 19h92.9v92.9h-92.9z" fill="#00023b"/><g fill="#fff"><path d="m114.5 114.5h-97.9v-98h97.9zm-92.9-5h87.9v-88h-87.9z"/><g enable-background="new"><path d="m59 86.7-6.7-19.2h-1.2-12.2v19.2h-5.6v-48.2h18.5c3.6 0 6.3.6 8.1 1.8s3 2.8 3.5 4.8.8 4.6.8 7.8c0 3.5-.4 6.4-1.3 8.7-.8 2.3-2.6 3.9-5.3 4.8l7.4 20.3zm-3.3-25.1c1.2-.7 2-1.7 2.4-3s.6-3.2.6-5.6c0-2.5-.2-4.3-.5-5.6s-1.1-2.2-2.3-2.9-3-1-5.5-1h-11.5v19.1h11.1c2.5 0 4.4-.3 5.7-1z"/><path d="m74.3 85c-1.6-1.5-2.5-4.2-2.5-8.2 0-2.7.3-4.8.9-6.3s1.6-2.6 3-3.3 3.4-1 6-1c1.3 0 5.1.1 11.4.3v-2.4c0-2.9-.2-5-.7-6.2s-1.3-2-2.6-2.4c-1.2-.3-3.3-.5-6.3-.5-1.3 0-3 .1-4.9.2-2 .1-3.6.3-4.8.5v-4.3c3.3-.7 7.1-1 11.4-1 3.7 0 6.5.4 8.4 1.2 1.8.8 3.1 2.2 3.8 4.1s1 4.7 1 8.4v22.5h-4.8l-.3-5h-.3c-.8 2.2-2.2 3.7-4.1 4.4s-4.1 1.1-6.6 1.1c-3.7.1-6.3-.6-8-2.1zm14.8-3c1.2-.4 2.2-1.2 2.8-2.4.9-1.8 1.3-4.3 1.3-7.3v-2h-10c-1.7 0-3 .2-3.8.5s-1.4.9-1.7 1.8-.5 2.2-.5 4 .2 3.1.6 3.9 1.1 1.4 2 1.8c1 .3 2.5.5 4.5.5 1.9-.2 3.5-.4 4.8-.8z"/></g></g></svg>

<?xml version="1.0" encoding="utf-8"?>
<!-- Generator: Adobe Illustrator 23.0.1, SVG Export Plug-In . SVG Version: 6.00 Build 0)  -->
<svg version="1.1" id="Calque_1" xmlns="http://www.w3.org/2000/svg" xmlns:xlink="http://www.w3.org/1999/xlink" x="0px" y="0px"
	 viewBox="0 0 131 131" style="enable-background:new 0 0 131 131;" xml:space="preserve">
<style type="text/css">
	.st0{fill:#222458;}
	.st1{fill:#51537D;}
	.st2{fill:#A3A4B9;}
	.st3{fill:#00023B;}
	.st4{fill:#FFFFFF;}
	.st5{enable-background:new    ;}
</style>
<title>Logo_sombre_ai</title>
<g id="Rectangle_56">
	<g>
		<rect x="19.1" y="19" transform="matrix(0.5 -0.866 0.866 0.5 -23.9226 89.546)" class="st0" width="92.9" height="92.9"/>
		<path class="st1" d="M83,130.3L0.8,82.9L48.2,0.7l82.2,47.5L83,130.3z M3.5,82.1l78.7,45.5l45.5-78.7L49,3.4L3.5,82.1z"/>
	</g>
</g>
<g id="Rectangle_56-2">
	<g>
		<rect x="19" y="19.1" transform="matrix(0.866 -0.5 0.5 0.866 -23.9777 41.527)" class="st0" width="92.9" height="92.9"/>
		<path class="st2" d="M47.9,131L0,48L83.1,0l48,83.1L47.9,131z M4.1,49.1l45,77.9l77.9-45L82,4.1L4.1,49.1z"/>
	</g>
</g>
<g id="Rectangle_56-3">
	<g>
		<rect x="19.1" y="19" class="st3" width="92.9" height="92.9"/>
		<path class="st4" d="M114.5,114.5H16.6V16.5h97.9V114.5z M21.6,109.5h87.9V21.5H21.6V109.5z"/>
	</g>
</g>
<g id="Ra">
	<g class="st5">
		<path class="st4" d="M59,86.7l-6.7-19.2h-1.2H38.9v19.2h-5.6V38.5h18.5c3.6,0,6.3,0.6,8.1,1.8c1.8,1.2,3,2.8,3.5,4.8
			c0.5,2,0.8,4.6,0.8,7.8c0,3.5-0.4,6.4-1.3,8.7c-0.8,2.3-2.6,3.9-5.3,4.8L65,86.7H59z M55.7,61.6c1.2-0.7,2-1.7,2.4-3
			c0.4-1.3,0.6-3.2,0.6-5.6c0-2.5-0.2-4.3-0.5-5.6c-0.3-1.3-1.1-2.2-2.3-2.9c-1.2-0.7-3-1-5.5-1H38.9v19.1H50
			C52.5,62.6,54.4,62.3,55.7,61.6z"/>
		<path class="st4" d="M74.3,85c-1.6-1.5-2.5-4.2-2.5-8.2c0-2.7,0.3-4.8,0.9-6.3c0.6-1.5,1.6-2.6,3-3.3c1.4-0.7,3.4-1,6-1
			c1.3,0,5.1,0.1,11.4,0.3v-2.4c0-2.9-0.2-5-0.7-6.2c-0.5-1.2-1.3-2-2.6-2.4c-1.2-0.3-3.3-0.5-6.3-0.5c-1.3,0-3,0.1-4.9,0.2
			c-2,0.1-3.6,0.3-4.8,0.5v-4.3c3.3-0.7,7.1-1,11.4-1c3.7,0,6.5,0.4,8.4,1.2c1.8,0.8,3.1,2.2,3.8,4.1c0.7,1.9,1,4.7,1,8.4v22.5h-4.8
			l-0.3-5h-0.3c-0.8,2.2-2.2,3.7-4.1,4.4c-1.9,0.7-4.1,1.1-6.6,1.1C78.6,87.2,76,86.5,74.3,85z M89.1,82c1.2-0.4,2.2-1.2,2.8-2.4
			c0.9-1.8,1.3-4.3,1.3-7.3v-2h-10c-1.7,0-3,0.2-3.8,0.5c-0.8,0.3-1.4,0.9-1.7,1.8c-0.3,0.9-0.5,2.2-0.5,4c0,1.8,0.2,3.1,0.6,3.9
			c0.4,0.8,1.1,1.4,2,1.8c1,0.3,2.5,0.5,4.5,0.5C86.2,82.6,87.8,82.4,89.1,82z"/>
	</g>
</g>
</svg>
